trans-undertale.svg

<svg shape-rendering="crispEdges" viewBox="0 -.5 32 29" xmlns="http://www.w3.org/2000/svg"><path d="m10 0h11m-14 1h3m12 0h2m-19 1h2m-3 1h1m-2 1h1m-2 1h1m-2 1h1m-1 1h1m-2 1h1m-1 1h1m-1 1h1m-1 1h1m-1 1h1m-1 1h1m0 1h1m-1 1h1m0 1h1m-1 1h1" stroke="#030303"/><path d="m21 0h1m2 1h1m5 6h1m-24 2h5m-5 1h5m-11 9h1m23 0h1m-25 1h1m4 0h1m18 0h2m-26 1h1m23 0h1m-24 1h1m4 0h1m-6 1h1m1 2h1m22 0h1m-3 1h1m-19 1h3" stroke="#000"/><path d="m10 1h12m-15 1h18m-20 1h22m-23 1h24m-25 1h26m-25 19h6m13 0h5m-23 1h7m9 0h6m-20 1h18m-15 1h12" stroke="#4ccdfa"/><path d="m25 2h1" stroke="#050305"/><path d="m26 2h1m0 1h1m1 2h1m0 1h1m-10 3h5m-21 1h1m15 0h5m-21 1h8m6 0h10m-26 1h5m2 0h3m6 0h3m2 0h5m-26 1h5m2 0h3m6 0h3m2 0h5m-24 1h7m9 0h3m1 0h3m2 0h1m-25 1h6m3 0h2m3 0h5m5 0h1m-21 1h1m4 0h2m-9 1h2m4 0h4m4 0h2m5 0h1m-16 1h4m12 0h1m-25 1h2m6 0h4m8 0h1m3 0h1m-27 1h2m2 0h2m14 0h1m2 0h1m2 0h1m-23 1h1m1 0h13m1 0h1m5 0h1m-23 1h1m13 0h1m1 0h1m-17 1h2m5 0h1m3 0h1m2 0h1m6 0h1m-15 1h1m3 0h1m1 0h2m-11 1h9" stroke="#030000"/><path d="m28 4h1m2 4h1m-12 1h1m10 0h1m-20 1h1m13 0h1m4 0h1m-1 1h1m-1 1h1m-1 1h1m-28 1h1m15 0h1m3 0h1m-4 2h1m7 0h1m-5 2h1m-14 4h1m2 0h1m3 0h1m-8 1h1m10 0h1m-12 1h1" stroke="#030002"/><path d="m2 6h27m-27 1h28m-29 1h30m-30 1h5m6 0h8m6 0h5m-30 1h3m9 0h6m9 0h3m-30 1h2m10 0h6m10 0h2m-29 7h4m1 0h7m4 0h7m1 0h4m-28 1h4m2 0h6m4 0h7m2 0h3m-28 1h2m6 0h13m5 0h2m-28 1h4m20 0h4m-27 1h4m18 0h4m-26 1h5m16 0h5" stroke="#f9a8b7"/><path d="m29 6h1" stroke="#050303"/><path d="m6 9h1m-1 1h1m-4 14h1m6 0h1m11 3h1" stroke="#000003"/><path d="m4 10h1m14 0h1m-17 1h1" stroke="#040002"/><path d="m20 10h1" stroke="#000300"/><path d="m27 10h1" stroke="#030200"/><path d="m4 11h1" stroke="#020300"/><path d="m1 12h2m5 0h2m3 0h6m3 0h2m5 0h2m-30 1h2m5 0h2m3 0h6m3 0h2m5 0h2m-29 1h2m8 0h8m8 0h2m-28 1h2m1 0h1m6 0h3m2 0h3m5 0h5m-27 1h7m1 0h4m2 0h4m1 0h7m-5 1h5m-22 4h1m1 0h1m13 0h1m-15 1h3m1 0h2m1 0h3m1 0h2m1 0h1m-14 1h2m1 0h2m1 0h3m1 0h2m-9 1h2m1 0h3m1 0h1" stroke="#fff"/><path d="m4 15h1" stroke="#fffdfe"/><path d="m3 17h5m10 0h4" stroke="#fdffff"/><path d="m10 17h4" stroke="#fbfdfd"/><path d="m1 18h1m4 0h1" stroke="#020202"/><path d="m7 20h1" stroke="#fffffd"/><path d="m23 20h1m5 2h1" stroke="#060002"/><path d="m6 21h1m19 5h1" stroke="#000200"/><path d="m11 24h1m-1 4h11" stroke="#000002"/><path d="m28 24h1" stroke="#000204"/><path d="m5 26h1" stroke="#030003"/><path d="m6 26h1" stroke="#050003"/><path d="m23 27h2" stroke="#030004"/><path d="m10 28h1" stroke="#000006"/></svg>

<svg xmlns="http://www.w3.org/2000/svg" viewBox="0 -0.5 32 29" shape-rendering="crispEdges"><metadata>Made with Pixels to Svg https://codepen.io/shshaw/pen/XbxvNj</metadata><path stroke="#030303" d="M10 0h11M7 1h3M22 1h2M5 2h2M4 3h1M3 4h1M2 5h1M1 6h1M1 7h1M0 8h1M0 9h1M0 10h1M0 11h1M0 12h1M0 13h1M1 14h1M1 15h1M2 16h1M2 17h1"/><path stroke="#000" d="M21 0h1M24 1h1M30 7h1M7 9h5M7 10h5M1 19h1M25 19h1M1 20h1M6 20h1M25 20h2M1 21h1M25 21h1M2 22h1M7 22h1M2 23h1M4 25h1M27 25h1M25 26h1M7 27h3"/><path stroke="#4ccdfa" d="M10 1h12M7 2h18M5 3h22M4 4h24M3 5h26M4 24h6M23 24h5M5 25h7M21 25h6M7 26h18M10 27h12"/><path stroke="#050305" d="M25 2h1"/><path stroke="#030000" d="M26 2h1M27 3h1M29 5h1M30 6h1M21 9h5M5 10h1M21 10h5M5 11h8M19 11h10M3 12h5M10 12h3M19 12h3M24 12h5M3 13h5M10 13h3M19 13h3M24 13h5M5 14h7M21 14h3M25 14h3M30 14h1M6 15h6M15 15h2M20 15h5M30 15h1M10 16h1M15 16h2M8 17h2M14 17h4M22 17h2M29 17h1M14 18h4M30 18h1M6 19h2M14 19h4M26 19h1M30 19h1M4 20h2M8 20h2M24 20h1M27 20h1M30 20h1M8 21h1M10 21h13M24 21h1M30 21h1M8 22h1M22 22h1M24 22h1M8 23h2M15 23h1M19 23h1M22 23h1M29 23h1M15 24h1M19 24h1M21 24h2M12 25h9"/><path stroke="#030002" d="M28 4h1M31 8h1M20 9h1M31 9h1M12 10h1M26 10h1M31 10h1M31 11h1M31 12h1M31 13h1M4 14h1M20 14h1M24 14h1M21 16h1M29 16h1M25 18h1M12 22h1M15 22h1M19 22h1M12 23h1M23 23h1M12 24h1"/><path stroke="#f9a8b7" d="M2 6h27M2 7h28M1 8h30M1 9h5M12 9h8M26 9h5M1 10h3M13 10h6M28 10h3M1 11h2M13 11h6M29 11h2M2 18h4M7 18h7M18 18h7M26 18h4M2 19h4M8 19h6M18 19h7M27 19h3M2 20h2M10 20h13M28 20h2M2 21h4M26 21h4M3 22h4M25 22h4M3 23h5M24 23h5"/><path stroke="#050303" d="M29 6h1"/><path stroke="#000003" d="M6 9h1M6 10h1M3 24h1M10 24h1M22 27h1"/><path stroke="#040002" d="M4 10h1M19 10h1M3 11h1"/><path stroke="#000300" d="M20 10h1"/><path stroke="#030200" d="M27 10h1"/><path stroke="#020300" d="M4 11h1"/><path stroke="#fff" d="M1 12h2M8 12h2M13 12h6M22 12h2M29 12h2M1 13h2M8 13h2M13 13h6M22 13h2M29 13h2M2 14h2M12 14h8M28 14h2M2 15h2M5 15h1M12 15h3M17 15h3M25 15h5M3 16h7M11 16h4M17 16h4M22 16h7M24 17h5M7 21h1M9 21h1M23 21h1M9 22h3M13 22h2M16 22h3M20 22h2M23 22h1M10 23h2M13 23h2M16 23h3M20 23h2M13 24h2M16 24h3M20 24h1"/><path stroke="#fffdfe" d="M4 15h1"/><path stroke="#fdffff" d="M3 17h5M18 17h4"/><path stroke="#fbfdfd" d="M10 17h4"/><path stroke="#020202" d="M1 18h1M6 18h1"/><path stroke="#fffffd" d="M7 20h1"/><path stroke="#060002" d="M23 20h1M29 22h1"/><path stroke="#000200" d="M6 21h1M26 26h1"/><path stroke="#000002" d="M11 24h1M11 28h11"/><path stroke="#000204" d="M28 24h1"/><path stroke="#030003" d="M5 26h1"/><path stroke="#050003" d="M6 26h1"/><path stroke="#030004" d="M23 27h2"/><path stroke="#000006" d="M10 28h1"/></svg>
